src/assets/vectors/sync-tip-01.svg

<svg width="51" height="34" viewBox="0 0 51 34" fill="none" xmlns="http://www.w3.org/2000/svg">
<path d="M44.9024 2.3466C44.5119 1.95608 43.8787 1.95608 43.4882 2.3466C43.0977 2.73713 43.0977 3.37029 43.4882 3.76082L44.9024 2.3466ZM43.4882 28.3017C43.0977 28.6923 43.0977 29.3254 43.4882 29.716C43.8787 30.1065 44.5119 30.1065 44.9024 29.716L43.4882 28.3017ZM43.4882 3.76082C50.265 10.5376 50.265 21.525 43.4882 28.3017L44.9024 29.716C52.4603 22.1581 52.4603 9.90444 44.9024 2.3466L43.4882 3.76082Z" fill="#FF9500"/>
<path d="M39.7071 6.13567C39.3166 5.74514 38.6834 5.74514 38.2929 6.13567C37.9024 6.52619 37.9024 7.15936 38.2929 7.54988L39.7071 6.13567ZM38.2929 23.904C37.9024 24.2945 37.9024 24.9277 38.2929 25.3182C38.6834 25.7087 39.3166 25.7087 39.7071 25.3182L38.2929 23.904ZM38.2929 7.54988C42.809 12.0659 42.809 19.3879 38.2929 23.904L39.7071 25.3182C45.0042 20.0211 45.0042 11.4328 39.7071 6.13567L38.2929 7.54988Z" fill="#FF9500"/>
<rect x="1.4212" y="1.6185" width="29.1711" height="24.4" rx="7" stroke="#FF9500" stroke-width="2"/>
<path d="M30.5938 17.3056V20.0355C30.5938 24.5159 30.5938 26.7561 29.7218 28.4674C28.9548 29.9727 27.731 31.1965 26.2257 31.9635C24.5144 32.8355 22.2742 32.8355 17.7937 32.8355H14.2375C9.75708 32.8355 7.51687 32.8355 5.80558 31.9635C4.30028 31.1965 3.07643 29.9727 2.30945 28.4674C1.4375 26.7561 1.4375 24.5159 1.4375 20.0355V17.3056" stroke="#FF9500" stroke-width="2"/>
<path d="M6.91807 12.7225V14.893H6.52661V12.7225H6.91807Z" fill="#FF9500"/>
<path d="M10.2744 12.7348V14.893H9.77619L8.41795 13.2328V14.893H8.01462V12.7348H8.52471L9.88295 14.3858V12.7348H10.2744Z" fill="#FF9500"/>
<path d="M13.5296 12.9777C13.4406 13.1129 13.3694 13.2175 13.3161 13.2912C13.237 13.2257 13.1055 13.1693 12.9216 13.1222C12.7378 13.073 12.5569 13.0484 12.3789 13.0484C12.203 13.0484 12.0576 13.0771 11.943 13.1344C11.8283 13.1898 11.771 13.2728 11.771 13.3835C11.771 13.4368 11.8026 13.4788 11.8659 13.5095C11.9291 13.5382 12.0112 13.5587 12.112 13.571C12.2148 13.5813 12.3275 13.5915 12.4501 13.6018C12.5747 13.61 12.6982 13.6243 12.8208 13.6448C12.9454 13.6653 13.058 13.694 13.1589 13.7309C13.2617 13.7657 13.3447 13.8221 13.408 13.9C13.4713 13.9758 13.5029 14.0701 13.5029 14.1828C13.5029 14.3981 13.405 14.5825 13.2093 14.7363C13.0136 14.8879 12.7457 14.9638 12.4056 14.9638C12.1881 14.9638 11.9904 14.9392 11.8125 14.89C11.6365 14.8408 11.507 14.7906 11.424 14.7393C11.3429 14.686 11.2757 14.6297 11.2223 14.5702L11.4863 14.2659C11.7374 14.4811 12.0408 14.5887 12.3967 14.5887C12.4778 14.5887 12.5559 14.5836 12.631 14.5733C12.7081 14.561 12.7813 14.5426 12.8505 14.518C12.9216 14.4913 12.978 14.4554 13.0195 14.4104C13.061 14.3632 13.0818 14.3079 13.0818 14.2443C13.0818 14.1746 13.0491 14.1203 12.9839 14.0814C12.9206 14.0424 12.8376 14.0168 12.7348 14.0045C12.632 13.9902 12.5183 13.9789 12.3938 13.9707C12.2692 13.9625 12.1437 13.9502 12.0171 13.9338C11.8926 13.9154 11.7789 13.8887 11.6761 13.8539C11.5733 13.819 11.4892 13.7627 11.424 13.6848C11.3607 13.6048 11.3291 13.5044 11.3291 13.3835C11.3291 13.1703 11.4329 12.9992 11.6405 12.87C11.8481 12.7389 12.11 12.6733 12.4264 12.6733C12.6636 12.6733 12.8781 12.704 13.0699 12.7655C13.2617 12.827 13.4149 12.8977 13.5296 12.9777Z" fill="#FF9500"/>
<path d="M16.3781 12.7348V13.1006H15.5152V14.893H15.1237V13.1006H14.2844V12.7348H16.3781Z" fill="#FF9500"/>
<path d="M19.4169 14.893H18.9573L18.6874 14.3273H17.3885L17.08 14.893H16.6026L17.8541 12.7225H18.3315L19.4169 14.893ZM18.0795 13.0576L17.5872 13.9615H18.5124L18.0795 13.0576Z" fill="#FF9500"/>
<path d="M22.5226 12.7348V14.893H22.0244L20.6661 13.2328V14.893H20.2628V12.7348H20.7729L22.1311 14.3858V12.7348H22.5226Z" fill="#FF9500"/>
<path d="M25.5049 12.7348V13.1006H24.6419V14.893H24.2505V13.1006H23.4112V12.7348H25.5049Z" fill="#FF9500"/>
</svg>

<svg width="51" height="34" fill="none" xmlns="http://www.w3.org/2000/svg"><path d="M44.902 2.347a1 1 0 1 0-1.414 1.414l1.414-1.414zm-1.414 25.955a1 1 0 0 0 1.414 1.414l-1.414-1.414zm0-24.541c6.777 6.777 6.777 17.764 0 24.54l1.414 1.415c7.558-7.558 7.558-19.812 0-27.37l-1.414 1.415z" fill="#127BF3"/><path d="M39.707 6.136a1 1 0 1 0-1.414 1.414l1.414-1.414zm-1.414 17.768a1 1 0 0 0 1.414 1.414l-1.414-1.414zm0-16.354c4.516 4.516 4.516 11.838 0 16.354l1.414 1.414c5.297-5.297 5.297-13.885 0-19.182L38.293 7.55z" fill="#127BF3"/><rect x="1.421" y="1.619" width="29.171" height="24.4" rx="7" stroke="#127BF3" stroke-width="2"/><path d="M30.594 17.306v2.73c0 4.48 0 6.72-.872 8.431a8 8 0 0 1-3.496 3.497c-1.712.872-3.952.872-8.432.872h-3.556c-4.48 0-6.721 0-8.432-.872a8 8 0 0 1-3.497-3.497c-.872-1.71-.872-3.951-.872-8.431v-2.73" stroke="#127BF3" stroke-width="2"/><path d="M6.918 12.723v2.17h-.391v-2.17h.391zM10.274 12.735v2.158h-.498l-1.358-1.66v1.66h-.403v-2.158h.51l1.358 1.65v-1.65h.391zM13.53 12.978a9.2 9.2 0 0 1-.214.313c-.079-.065-.21-.122-.394-.169a2.093 2.093 0 0 0-.543-.074.973.973 0 0 0-.436.086c-.115.056-.172.139-.172.25 0 .053.032.095.095.125s.145.05.246.062l.338.03c.125.009.248.023.37.044.125.02.238.049.339.086a.533.533 0 0 1 .249.169c.063.076.095.17.095.283 0 .215-.098.4-.294.553-.195.152-.463.228-.803.228-.218 0-.416-.025-.594-.074-.175-.05-.305-.1-.388-.15a1.026 1.026 0 0 1-.202-.17l.264-.304c.251.215.555.323.91.323a1.235 1.235 0 0 0 .454-.07.432.432 0 0 0 .17-.109.243.243 0 0 0 .062-.166c0-.07-.033-.124-.098-.163a.612.612 0 0 0-.25-.076 4.759 4.759 0 0 0-.34-.034 5.996 5.996 0 0 1-.377-.037 1.956 1.956 0 0 1-.34-.08.553.553 0 0 1-.253-.17.47.47 0 0 1-.095-.3c0-.214.104-.385.311-.514.208-.131.47-.197.786-.197.238 0 .452.031.644.092.192.062.345.133.46.213zM16.378 12.735v.366h-.863v1.792h-.391v-1.792h-.84v-.366h2.094zM19.417 14.893h-.46l-.27-.566h-1.299l-.308.566h-.477l1.251-2.17h.477l1.086 2.17zm-1.338-1.835l-.492.903h.925l-.433-.903zM22.523 12.735v2.158h-.499l-1.358-1.66v1.66h-.403v-2.158h.51l1.358 1.65v-1.65h.392zM25.505 12.735v.366h-.863v1.792h-.392v-1.792h-.839v-.366h2.094z" fill="#127BF3"/></svg>
